Sources/FrostedUI/Resources/Icons.xcassets/creditCardFilled32.imageset/credit-card-filled-32.svg

<svg width="32" height="32" viewBox="0 0 32 32" fill="none" xmlns="http://www.w3.org/2000/svg" data-fui-icon="true">
  <path d="M1 9.25C1 6.90279 2.90279 5 5.25 5H26.75C29.0972 5 31 6.90279 31 9.25V11H1V9.25Z" fill="currentColor" />
  <path
    fill-rule="evenodd"
    clip-rule="evenodd"
    d="M1 13V22.75C1 25.0972 2.90279 27 5.25 27H26.75C29.0972 27 31 25.0972 31 22.75V13H1ZM5.75 21C5.75 20.4477 6.19772 20 6.75 20H13.25C13.8023 20 14.25 20.4477 14.25 21C14.25 21.5523 13.8023 22 13.25 22H6.75C6.19772 22 5.75 21.5523 5.75 21Z"
    fill="currentColor"
  />
</svg>

<svg xmlns="http://www.w3.org/2000/svg" width="32" height="32" fill="none" data-fui-icon="true" viewBox="0 0 32 32"><path fill="currentColor" d="M1 9.25A4.25 4.25 0 0 1 5.25 5h21.5A4.25 4.25 0 0 1 31 9.25V11H1z"/><path fill="currentColor" fill-rule="evenodd" d="M1 13v9.75A4.25 4.25 0 0 0 5.25 27h21.5A4.25 4.25 0 0 0 31 22.75V13zm4.75 8a1 1 0 0 1 1-1h6.5a1 1 0 1 1 0 2h-6.5a1 1 0 0 1-1-1" clip-rule="evenodd"/></svg>
